X:4
T:No.66 The Irish Washerwoman
C:jig
M:6/8
L:1/8
K:G
BGG DGG|BGB dcB|cAA EAA|cBc edc|
BGG DGG|BGB dcB|cBc Adc|BGF G2A:|
gfg gfg|gfg bag|fdf fdf|fdf agf|
efg dgg|cgg Bgg|cBc Adc|BGF G3:|
